X: 1521
T:Polsk
T: (Totakt-pols, nr. MN-254)
S:efter Mads Nielsen
R:Totakt-pols
O:Tyvkjer Mark, Danmark
N:Från nothäftet "Totakt-pols" av Åke Persson, Ethel Wieslander m fl.
M:2/4
L:1/8
Q:1/4=100
K: D
A2 |: dd e1/2g1/2e1/2c1/2 | df A2 | ddee | f1/2e1/2f1/2g1/2 af | dd e1/2g1/2e1/2c1/2 | df A2 | BABc |1 d2 A2 :|2 d2 fg |
aabb | a1/2b1/2a1/2g1/2 fe | ddee | f1/2e1/2f1/2g1/2 af | aabb | a1/2b1/2a1/2g1/2 fe | dd e1/2g1/2e1/2c1/2 |1 d2 fg :|2 d2z2 ||
(:musicend:)
Längst ner på sidan i originalnotboken står "Mads Nielsen den 1 April 1847".
(:music:)
